svg/gatsby.svg

<svg viewBox="0 0 20 20" xmlns="http://www.w3.org/2000/svg">
<rect width="100%" height="100%" fill="#663399"/>
<path d="M16.2859 9.99999H12.2859V11.142H15.0279C14.8322 11.99 14.4261 12.775 13.8468 13.4245C13.2676 14.074 12.534 14.567 11.7139 14.858L5.14187 8.28599C5.49688 7.28184 6.15495 6.41271 7.02517 5.79865C7.89539 5.18459 8.93481 4.8559 9.99987 4.85799C10.8253 4.86345 11.6379 5.06266 12.3722 5.43957C13.1066 5.81647 13.7422 6.36055 14.2279 7.02799L15.0859 6.28599C14.3728 5.312 13.3943 4.56405 12.2673 4.13164C11.1404 3.69922 9.91267 3.60065 8.73114 3.84772C7.54961 4.09479 6.46428 4.67703 5.605 5.52478C4.74571 6.37254 4.14887 7.44991 3.88587 8.62799L11.4279 16.172C12.8058 15.8246 14.0299 15.0306 14.9088 13.914C15.7877 12.7973 16.272 11.421 16.2859 9.99999ZM3.71387 10.058C3.71561 10.8668 3.87812 11.6671 4.19194 12.4125C4.50576 13.1579 4.96462 13.8335 5.54187 14.4C6.69279 15.5574 8.2537 16.2142 9.88587 16.228L3.71387 10.058Z" fill="#663399"/>
<path d="M10 2C8.41775 2 6.87103 2.46919 5.55544 3.34824C4.23985 4.22729 3.21447 5.47672 2.60897 6.93853C2.00347 8.40034 1.84504 10.0089 2.15372 11.5607C2.4624 13.1126 3.22433 14.538 4.34315 15.6569C5.46197 16.7757 6.88743 17.5376 8.43928 17.8463C9.99113 18.155 11.5997 17.9965 13.0615 17.391C14.5233 16.7855 15.7727 15.7602 16.6518 14.4446C17.5308 13.129 18 11.5823 18 10C17.9937 7.88022 17.1488 5.84906 15.6499 4.35014C14.1509 2.85122 12.1198 2.00633 10 2V2ZM5.542 14.458C4.38462 13.3071 3.72777 11.7462 3.714 10.114L9.942 16.286C8.29662 16.2566 6.72387 15.6031 5.542 14.458V14.458ZM11.372 16.114L3.886 8.628C4.14901 7.44991 4.74585 6.37255 5.60513 5.52479C6.46442 4.67704 7.54975 4.0948 8.73128 3.84773C9.91281 3.60066 11.1405 3.69923 12.2675 4.13165C13.3945 4.56406 14.373 5.31201 15.086 6.286L14.228 7.028C13.7423 6.36056 13.1067 5.81648 12.3724 5.43958C11.638 5.06267 10.8254 4.86346 10 4.858C8.93694 4.8643 7.90134 5.19627 7.03274 5.80919C6.16413 6.42211 5.50425 7.28654 5.142 8.286L11.714 14.858C12.5342 14.567 13.2677 14.074 13.847 13.4245C14.4262 12.775 14.8324 11.99 15.028 11.142H12.286V10H16.286C16.2785 11.4245 15.7886 12.8044 14.8962 13.9147C14.0038 15.025 12.7615 15.8003 11.372 16.114V16.114Z" fill="white"/>
</svg>

<svg xmlns="http://www.w3.org/2000/svg" viewBox="0 0 20 20">
  <rect width="100%" height="100%" fill="#639"/>
  <path fill="#639" d="M16.29 10h-4v1.14h2.74a5.18 5.18 0 0 1-3.32 3.72L5.14 8.29a5.14 5.14 0 0 1 7.23-2.85c.74.38 1.37.92 1.86 1.59l.86-.74a6.28 6.28 0 0 0-11.2 2.34l7.54 7.54A6.43 6.43 0 0 0 16.29 10Zm-12.58.06a6.1 6.1 0 0 0 1.83 4.34 6.2 6.2 0 0 0 4.35 1.83L3.7 10.06Z"/>
  <path fill="#fff" d="M10 2a8 8 0 1 0 0 16 8 8 0 0 0 0-16ZM5.54 14.46a6.2 6.2 0 0 1-1.83-4.35l6.23 6.18a6.49 6.49 0 0 1-4.4-1.83Zm5.83 1.65L3.9 8.63a6.28 6.28 0 0 1 11.2-2.34l-.86.74A5.27 5.27 0 0 0 10 4.86a5.2 5.2 0 0 0-4.86 3.43l6.57 6.57a5.18 5.18 0 0 0 3.32-3.72h-2.74V10h4a6.3 6.3 0 0 1-4.92 6.11Z"/>
</svg>
